build/documents/FileXMLOutline.svg

<svg xmlns="http://www.w3.org/2000/svg" fill="none" viewBox="0 0 24 24" focusable="false"><path d="M0 0H24V24H0z"/><path fill="#74767B" fill-rule="evenodd" d="M5 6L5 11C3.34315 11 2 12.3431 2 14L2 18C2 19.6569 3.34315 21 5 21L19 21C20.6569 21 22 19.6569 22 18L22 14C22 12.3431 20.6569 11 19 11L19 9.17966C19 8.42148 18.7129 7.69141 18.1965 7.13629L15.2385 3.95662C14.671 3.34655 13.8752 3 13.042 3L8 3C6.34315 3 5 4.34315 5 6ZM8 4.3L13.042 4.3C13.1461 4.3 13.2491 4.30954 13.3499 4.32811L13.3499 7.04926C13.3499 8.12621 14.223 8.99926 15.2999 8.99926L17.6904 8.99925C17.6968 9.05892 17.7 9.11913 17.7 9.17966L17.7 11L6.3 11L6.3 6C6.3 5.06112 7.06112 4.3 8 4.3ZM14.6499 7.04926L14.6499 5.23254L16.9447 7.69926L15.2999 7.69926C14.9409 7.69926 14.6499 7.40824 14.6499 7.04926ZM19 12.3L5 12.3C4.06112 12.3 3.3 13.0611 3.3 14L3.3 18C3.3 18.9389 4.06112 19.7 5 19.7L19 19.7C19.9389 19.7 20.7 18.9389 20.7 18L20.7 14C20.7 13.0611 19.9389 12.3 19 12.3ZM7.58992 13.8501C7.7984 13.5579 8.20432 13.49 8.49656 13.6985C8.7888 13.907 8.8567 14.3129 8.64821 14.6051L7.65312 16L8.64824 17.3949C8.85672 17.6871 8.78883 18.093 8.49658 18.3015C8.20434 18.51 7.79843 18.4421 7.58994 18.1499L6.85466 17.1192L6.11938 18.1499C5.9109 18.4421 5.50498 18.51 5.21274 18.3015C4.9205 18.093 4.8526 17.6871 5.06109 17.3949L6.05621 16L5.06111 14.6051C4.85263 14.3129 4.92052 13.907 5.21276 13.6985C5.505 13.49 5.91092 13.5579 6.11941 13.8501L6.85466 14.8808L7.58992 13.8501ZM10.172 13.6985C9.99182 13.827 9.89692 14.0306 9.89949 14.2363L9.89949 17.7724C9.89949 18.1314 10.1905 18.4224 10.5495 18.4224C10.9085 18.4224 11.1995 18.1314 11.1995 17.7724L11.1995 16.258L11.8664 17.1928C11.873 17.2022 11.8799 17.2115 11.8871 17.2206C11.9603 17.3139 12.0546 17.382 12.1583 17.4231C12.2358 17.4539 12.3172 17.4689 12.3981 17.4688C12.479 17.4689 12.5604 17.4539 12.6379 17.4231C12.7416 17.382 12.8359 17.3139 12.9092 17.2206C12.9163 17.2115 12.9232 17.2022 12.9299 17.1928L13.5914 16.2655L13.5914 17.7724C13.5914 18.1314 13.8824 18.4224 14.2414 18.4224C14.6004 18.4224 14.8914 18.1314 14.8914 17.7724L14.8914 14.312C14.9213 14.0817 14.8265 13.8428 14.6242 13.6985C14.3605 13.5103 14.004 13.5473 13.7838 13.7712C13.7475 13.8072 13.7155 13.8474 13.6884 13.891L12.3981 15.6997L11.0786 13.8501C10.8701 13.5579 10.4642 13.49 10.172 13.6985ZM16.8449 13.5829C17.2039 13.5829 17.4949 13.8739 17.4949 14.2329L17.4949 17.1224L18.5637 17.1224C18.9227 17.1224 19.2137 17.4134 19.2137 17.7724C19.2137 18.1314 18.9227 18.4224 18.5637 18.4224L16.8449 18.4224C16.4859 18.4224 16.1949 18.1314 16.1949 17.7724L16.1949 14.2329C16.1949 13.8739 16.4859 13.5829 16.8449 13.5829Z"/></svg>

<svg xmlns="http://www.w3.org/2000/svg" fill="none" viewBox="0 0 24 24" focusable="false"><path fill="#74767B" fill-rule="evenodd" d="M5 6v5c-1.66 0-3 1.34-3 3v4c0 1.65 1.34 3 3 3h14c1.65 0 3-1.35 3-3v-4c0-1.66-1.35-3-3-3V9.17c0-.75-.29-1.48-.81-2.04l-2.96-3.18c-.56-.61-1.36-.95-2.19-.95H8C6.34 3 5 4.34 5 6m3-1.71h5.04q.15 0 .3.03v2.72c0 1.08.88 1.95 1.95 1.95h2.4c0 .06.01.12.01.18V11H6.3V6c0-.94.76-1.71 1.7-1.71m6.64 2.75V5.23l2.3 2.46h-1.65c-.35 0-.65-.29-.65-.65M19 12.3H5c-.94 0-1.7.76-1.7 1.7v4c0 .93.76 1.7 1.7 1.7h14c.93 0 1.7-.77 1.7-1.7v-4c0-.94-.77-1.7-1.7-1.7M8.49 13.69c-.29-.2-.7-.14-.91.16l-.73 1.03-.74-1.03c-.2-.3-.61-.36-.9-.16-.29.21-.36.62-.15.91l.99 1.4-.99 1.39c-.21.29-.14.7.15.91s.7.14.9-.16l.74-1.03.73 1.03a.648.648 0 1 0 1.06-.75L7.65 16l.99-1.4c.21-.29.14-.7-.15-.91m1.68 0c-.18.13-.28.34-.28.54v3.54c0 .36.3.65.65.65.36 0 .65-.29.65-.65v-1.52l.67.94c.01.01.01.02.02.03.08.09.17.16.27.2.08.03.16.04.24.04s.17-.01.24-.04a.6.6 0 0 0 .29-.23l.67-.93v1.51c0 .36.29.65.65.65s.65-.29.65-.65v-3.46a.67.67 0 0 0-.27-.62.65.65 0 0 0-.84.08.4.4 0 0 0-.1.12l-1.29 1.8-1.32-1.84c-.2-.3-.61-.36-.9-.16m6.67-.11c.36 0 .65.29.65.65v2.89h1.07c.36 0 .65.29.65.65s-.29.65-.65.65h-1.72c-.36 0-.65-.29-.65-.65v-3.54c0-.36.29-.65.65-.65"/></svg>
